Newaita-dark/actions/24/distribute-horizontal.svg

<svg height="24" viewBox="0 0 24 24" width="24" xmlns="http://www.w3.org/2000/svg"><g fill="#e0e0e0"><path d="m13.890625 12.589844h-3.96875v-1.203125h3.96875zm0 0"/><path d="m21.832031 5.148438c0-1.097657-.886719-1.984376-1.988281-1.984376h-2.976562c-1.097657 0-1.984376.886719-1.984376 1.984376v13.890624c0 1.101563.886719 1.988282 1.984376 1.988282h2.976562c1.101562 0 1.988281-.886719 1.988281-1.988282zm-1.988281.496093v12.898438c0 .277343-.21875.496093-.496094.496093h-1.984375c-.273437 0-.496093-.21875-.496093-.496093v-12.898438c0-.273437.222656-.496093.496093-.496093h1.984375c.277344 0 .496094.222656.496094.496093zm0 0"/><path d="m8.929688 5.148438c0-1.097657-.882813-1.984376-1.984376-1.984376h-2.976562c-1.097656 0-1.984375.886719-1.984375 1.984376v13.890624c0 1.101563.886719 1.988282 1.984375 1.988282h2.976562c1.101563 0 1.984376-.886719 1.984376-1.988282zm-1.984376.496093v12.898438c0 .277343-.21875.496093-.496093.496093h-1.984375c-.273438 0-.496094-.21875-.496094-.496093v-12.898438c0-.273437.222656-.496093.496094-.496093h1.984375c.277343 0 .496093.222656.496093.496093zm0 0"/><path d="m12.652344 13.085938v-1.984376c0-.273437.222656-.496093.496094-.496093h.246093c.273438 0 .496094.222656.496094.496093v1.984376c0 .273437-.222656.496093-.496094.496093h-.246093c-.273438 0-.496094-.222656-.496094-.496093zm0 0"/><path d="m9.921875 13.085938v-1.984376c0-.273437.222656-.496093.496094-.496093h.25c.273437 0 .496093.222656.496093.496093v1.984376c0 .273437-.222656.496093-.496093.496093h-.25c-.273438 0-.496094-.222656-.496094-.496093zm0 0"/></g></svg>

<svg xmlns="http://www.w3.org/2000/svg" xmlns:xlink="http://www.w3.org/1999/xlink" width="24px" height="24px" viewBox="0 0 24 24" version="1.1">
<g id="surface1">
     <defs>
  <style id="current-color-scheme" type="text/css">
   .ColorScheme-Text { color:#eeeeee; } .ColorScheme-Highlight { color:#424242; }
  </style>
 </defs>
<path style="fill:currentColor" class="ColorScheme-Text" d="M 13.890625 12.589844 L 9.921875 12.589844 L 9.921875 11.386719 L 13.890625 11.386719 Z M 13.890625 12.589844 "/>
     <defs>
  <style id="current-color-scheme" type="text/css">
   .ColorScheme-Text { color:#eeeeee; } .ColorScheme-Highlight { color:#424242; }
  </style>
 </defs>
<path style="fill:currentColor" class="ColorScheme-Text" d="M 21.832031 5.148438 C 21.832031 4.050781 20.945312 3.164062 19.84375 3.164062 L 16.867188 3.164062 C 15.769531 3.164062 14.882812 4.050781 14.882812 5.148438 L 14.882812 19.039062 C 14.882812 20.140625 15.769531 21.027344 16.867188 21.027344 L 19.84375 21.027344 C 20.945312 21.027344 21.832031 20.140625 21.832031 19.039062 Z M 19.84375 5.644531 L 19.84375 18.542969 C 19.84375 18.820312 19.625 19.039062 19.347656 19.039062 L 17.363281 19.039062 C 17.089844 19.039062 16.867188 18.820312 16.867188 18.542969 L 16.867188 5.644531 C 16.867188 5.371094 17.089844 5.148438 17.363281 5.148438 L 19.347656 5.148438 C 19.625 5.148438 19.84375 5.371094 19.84375 5.644531 Z M 19.84375 5.644531 "/>
     <defs>
  <style id="current-color-scheme" type="text/css">
   .ColorScheme-Text { color:#eeeeee; } .ColorScheme-Highlight { color:#424242; }
  </style>
 </defs>
<path style="fill:currentColor" class="ColorScheme-Text" d="M 8.929688 5.148438 C 8.929688 4.050781 8.046875 3.164062 6.945312 3.164062 L 3.96875 3.164062 C 2.871094 3.164062 1.984375 4.050781 1.984375 5.148438 L 1.984375 19.039062 C 1.984375 20.140625 2.871094 21.027344 3.96875 21.027344 L 6.945312 21.027344 C 8.046875 21.027344 8.929688 20.140625 8.929688 19.039062 Z M 6.945312 5.644531 L 6.945312 18.542969 C 6.945312 18.820312 6.726562 19.039062 6.449219 19.039062 L 4.464844 19.039062 C 4.191406 19.039062 3.96875 18.820312 3.96875 18.542969 L 3.96875 5.644531 C 3.96875 5.371094 4.191406 5.148438 4.464844 5.148438 L 6.449219 5.148438 C 6.726562 5.148438 6.945312 5.371094 6.945312 5.644531 Z M 6.945312 5.644531 "/>
     <defs>
  <style id="current-color-scheme" type="text/css">
   .ColorScheme-Text { color:#eeeeee; } .ColorScheme-Highlight { color:#424242; }
  </style>
 </defs>
<path style="fill:currentColor" class="ColorScheme-Text" d="M 12.652344 13.085938 L 12.652344 11.101562 C 12.652344 10.828125 12.875 10.605469 13.148438 10.605469 L 13.394531 10.605469 C 13.667969 10.605469 13.890625 10.828125 13.890625 11.101562 L 13.890625 13.085938 C 13.890625 13.359375 13.667969 13.582031 13.394531 13.582031 L 13.148438 13.582031 C 12.875 13.582031 12.652344 13.359375 12.652344 13.085938 Z M 12.652344 13.085938 "/>
     <defs>
  <style id="current-color-scheme" type="text/css">
   .ColorScheme-Text { color:#eeeeee; } .ColorScheme-Highlight { color:#424242; }
  </style>
 </defs>
<path style="fill:currentColor" class="ColorScheme-Text" d="M 9.921875 13.085938 L 9.921875 11.101562 C 9.921875 10.828125 10.144531 10.605469 10.417969 10.605469 L 10.667969 10.605469 C 10.941406 10.605469 11.164062 10.828125 11.164062 11.101562 L 11.164062 13.085938 C 11.164062 13.359375 10.941406 13.582031 10.667969 13.582031 L 10.417969 13.582031 C 10.144531 13.582031 9.921875 13.359375 9.921875 13.085938 Z M 9.921875 13.085938 "/>
</g>
</svg>
